X: 1
T: Moving In Old Decency
Z: fiel
S: https://thesession.org/tunes/2033#setting2033
R: reel
M: 4/4
L: 1/8
K: Emin
A2|:"^em"BeeA Beed|Beed"G"BAAG|FAAB BAFA|
"D"FDDE"^hm"FBBc|"^em"BeeA Beed|
Beed"D"BAAF|"G"G2GB GABA|"D"AGFG"^em"E2:|
FA|:"^em"Beef edBA| (3Bcd ef"A"gefe|
"D"d2ce dcBA|"^em" (3Bcd ef"A"gefe|"^em"Beef edBA|
(3Bcd ef gedB|"G"G2GB GABA|"D"AGFG"^em"E2:|
